!!!OTL: Das mannstolle Maedchen Brau's Medchen auf dere Laden sas,
!!!ARE: Europa, Mitteleuropa, Luxemburg
!!!YOR: 6, S. 83
!!    1894 gedruckt in Leipzig
!!!SCT: Q0126A
!!!YEM: Copyright 1995, estate of Helmut Schaffrath.
**kern
*ICvox
*Ivox
*M2/4
*k[f#]
*G:
{4d
=1
4.g
8f#
=2
4g
8a
8b
=3
4g
8g
8f#
=4
4g}
{4cc
=5
4b
8a
8b
=6
4g
4b
=7
2a
=8
4r}
{8a
8b
=9
4.cc
8b
=10
8a
8b
8cc
8a
=11
4.b
8g
=12
4a
4r}
=13
{4b
8a
8g
=14
8f#
8e
8d
8e
=15
4f#}
{4g
=16
8f#
8e
8d
8e
=17
4f#}
==
!!!AGN: Ballade, Werbung, Betrug
!!!ONB: ESAC (Essen Associative Code) Database: BALLADE
!!!AMT: simple duple
!!!AIN: vox
!!!EED: Helmut Schaffrath
!!!EEV: 1.0
*-
